static/fa/svgs/solid/kaaba.svg

<svg xmlns="http://www.w3.org/2000/svg" viewBox="0 0 576 512"><!--! Font Awesome Free 6.1.1 by @fontawesome - https://fontawesome.com License - https://fontawesome.com/license/free (Icons: CC BY 4.0, Fonts: SIL OFL 1.1, Code: MIT License) Copyright 2022 Fonticons, Inc.--><path d="M0 239.4v-42l278.1-82.1c6.8-1.7 13-1.7 18.9 0l279 82.1v42l-38.9-10.8c-8.5-2.4-17.4 2.6-19.7 11.1-2.4 8.5 2.6 17.4 11.1 19.7l47.5 13.2v136.9c0 21.6-15.6 42-37.6 46.9l-240 53.3c-6.8 1.5-14 1.5-20.8 0L37.59 456.4C15.63 451.5 0 431.1 0 409.5V272.6l47.48-13.2c7.62-2.3 13.5-11.2 11.14-19.7-2.37-8.5-11.19-13.5-19.7-11.1L0 239.4zm292.3-78.8c-2.8-.8-5.8-.8-8.6 0l-43.2 12c-8.5 2.3-13.5 11.2-11.1 19.7 2.3 8.5 11.2 13.5 19.7 11.1l38.9-10.8 38.9 10.8c8.5 2.4 17.4-2.6 19.7-11.1 1.5-8.5-3.5-17.4-11.1-19.7l-43.2-12zm-100.8 58.8c7.6-2.3 12.6-11.2 11.1-19.7-2.3-8.5-11.2-13.5-19.7-11.1l-86.38 24c-8.52 2.3-13.5 11.2-11.14 19.7 2.37 8.5 11.19 13.5 19.72 11.1l86.4-24zm201.6-30.8c-8.5-2.4-17.4 2.6-19.7 11.1-2.4 8.5 2.6 17.4 11.1 19.7l86.4 24c8.5 2.4 17.4-2.6 19.7-11.1 1.5-8.5-3.5-17.4-11.1-19.7l-86.4-24zM269.9 84.63 0 164v-33.4c0-20.7 13.22-39.01 32.82-45.54L272.8 5.061a48.134 48.134 0 0 1 30.4 0l240 79.999c19.6 6.53 32.8 24.84 32.8 45.54V164L306.1 84.63a64.42 64.42 0 0 0-36.2 0z"/></svg>

<svg xmlns="http://www.w3.org/2000/svg" viewBox="0 0 576 512"><!--! Font Awesome Free 6.1.1 by @fontawesome - https://fontawesome.com License - https://fontawesome.com/license/free (Icons: CC BY 4.0, Fonts: SIL OFL 1.1, Code: MIT License) Copyright 2022 Fonticons, Inc. --><path d="M0 239.4V197.4L278.1 115.3C284.9 113.6 291.1 113.6 297 115.3L576 197.4V239.4L537.1 228.6C528.6 226.2 519.7 231.2 517.4 239.7C515 248.2 520 257.1 528.5 259.4L576 272.6V409.5C576 431.1 560.4 451.5 538.4 456.4L298.4 509.7C291.6 511.2 284.4 511.2 277.6 509.7L37.59 456.4C15.63 451.5 0 431.1 0 409.5V272.6L47.48 259.4C55.1 257.1 60.98 248.2 58.62 239.7C56.25 231.2 47.43 226.2 38.92 228.6L0 239.4zM292.3 160.6C289.5 159.8 286.5 159.8 283.7 160.6L240.5 172.6C232 174.9 227 183.8 229.4 192.3C231.7 200.8 240.6 205.8 249.1 203.4L288 192.6L326.9 203.4C335.4 205.8 344.3 200.8 346.6 192.3C348.1 183.8 343.1 174.9 335.5 172.6L292.3 160.6zM191.5 219.4C199.1 217.1 204.1 208.2 202.6 199.7C200.3 191.2 191.4 186.2 182.9 188.6L96.52 212.6C88 214.9 83.02 223.8 85.38 232.3C87.75 240.8 96.57 245.8 105.1 243.4L191.5 219.4zM393.1 188.6C384.6 186.2 375.7 191.2 373.4 199.7C371 208.2 376 217.1 384.5 219.4L470.9 243.4C479.4 245.8 488.3 240.8 490.6 232.3C492.1 223.8 487.1 214.9 479.5 212.6L393.1 188.6zM269.9 84.63L0 164V130.6C0 109.9 13.22 91.59 32.82 85.06L272.8 5.061C282.7 1.777 293.3 1.777 303.2 5.061L543.2 85.06C562.8 91.59 576 109.9 576 130.6V164L306.1 84.63C294.3 81.17 281.7 81.17 269.9 84.63V84.63z"/></svg>
